!! 00000] TT[WS
!!!OTL: Quanren xiaodiao
!!!ARE: Asia, China, Shanxi Linxian
!! Ethnic Group: Han
!! WI, 283 (2)
!!!SCT: J0340
!!!YEM: Copyright 1995, estate of Helmut Schaffrath.
**kern
*ICvox
*Ivox
*M4/4
*k[f#]
*G:
{8dd
16dd
16a
8dd
16ee
16dd
8cc
16b
16dd
4a
=1
8dd
16a
16b
8a
16a
16d
4g
8f#
8e}
=2
{8dd
8f#
8a
8b
8dd
8g
8f#
16e
16d
=3
8dd
16a
16b
8a
8e
2d}
=4
{8g
8d
4g
8a
8dd
8b
8dd
=5
8b
16a
16b
8a
8d
4g
8f#
8e}
=6
{8dd
8f#
8a
8b
8dd
8g
16f#
16e
8d
=7
8b
16a
16b
8a
8e
2d}
==
!!!AGN: Xiaodiao. Xinminge, Xuanchuan
!! Neue Text. Politische Liede
!!!ONB: ESAC (Essen Associative Code) Database: CHINA
!!!AMT: simple quadruple
!!!AIN: vox
!!!EED: Helmut Schaffrath
!!!EEV: 1.0
*-
